{ "compressionlevel":-1,
 "height":18,
 "infinite":false,
 "layers":[
        {
         "data":[1, 2, 2, 2, 2, 2, 2, 2, 2, 2, 2, 2, 2, 2, 2, 2, 2, 4,
            17, 18, 18, 18, 18, 18, 18, 18, 18, 18, 18, 18, 18, 18, 18, 18, 18, 52,
            17, 18, 18, 18, 18, 18, 18, 18, 18, 18, 18, 18, 18, 18, 18, 18, 18, 52,
            17, 18, 18, 18, 18, 18, 18, 18, 18, 18, 18, 18, 18, 18, 18, 18, 18, 36,
            17, 18, 18, 18, 18, 18, 18, 18, 18, 18, 18, 18, 18, 18, 18, 18, 18, 52,
            17, 18, 18, 18, 18, 18, 18, 18, 18, 18, 18, 18, 18, 18, 18, 18, 18, 52,
            17, 18, 18, 18, 18, 18, 18, 18, 18, 18, 18, 18, 18, 18, 18, 18, 18, 52,
            17, 18, 18, 18, 18, 18, 18, 18, 18, 18, 18, 18, 18, 18, 18, 18, 18, 52,
            17, 18, 18, 18, 18, 18, 18, 18, 18, 18, 18, 18, 18, 18, 18, 18, 18, 52,
            17, 18, 18, 18, 18, 18, 18, 18, 18, 18, 18, 18, 18, 18, 18, 18, 18, 52,
            17, 18, 18, 18, 18, 18, 18, 18, 18, 18, 18, 18, 18, 18, 18, 18, 18, 52,
            17, 18, 18, 18, 18, 18, 18, 18, 18, 18, 18, 18, 18, 18, 18, 18, 18, 52,
            17, 18, 18, 18, 18, 18, 18, 18, 18, 18, 18, 18, 18, 18, 18, 18, 18, 52,
            17, 18, 18, 18, 18, 18, 18, 18, 18, 18, 18, 18, 18, 18, 18, 18, 18, 52,
            17, 18, 18, 18, 18, 18, 18, 18, 18, 18, 18, 18, 18, 18, 18, 18, 18, 52,
            17, 18, 18, 18, 18, 18, 18, 18, 18, 18, 18, 18, 18, 18, 18, 18, 18, 52,
            49, 18, 18, 18, 18, 18, 18, 18, 18, 18, 18, 18, 18, 18, 18, 18, 18, 52,
            65, 66, 66, 66, 66, 66, 66, 66, 66, 66, 66, 66, 66, 66, 66, 66, 66, 66],
         "height":18,
         "id":1,
         "name":"Ground",
         "opacity":1,
         "type":"tilelayer",
         "visible":true,
         "width":18,
         "x":0,
         "y":0
        }, 
        {
         "data":[105, 105, 105, 105, 105, 105, 105, 105, 105, 105, 105, 105, 105, 105, 105, 105, 105, 105,
            105, 0, 0, 0, 0, 0, 0, 0, 0, 0, 0, 0, 0, 0, 105, 105, 105, 105,
            105, 105, 105, 105, 0, 105, 105, 105, 105, 105, 105, 105, 105, 0, 105, 105, 105, 105,
            105, 105, 105, 105, 0, 0, 0, 0, 0, 0, 0, 0, 0, 0, 0, 0, 0, 0,
            105, 105, 105, 105, 0, 105, 105, 105, 105, 105, 105, 0, 105, 105, 105, 105, 105, 105,
            105, 105, 105, 105, 0, 105, 105, 105, 105, 105, 105, 0, 105, 105, 105, 0, 105, 105,
            105, 0, 0, 0, 0, 0, 0, 0, 0, 0, 0, 0, 105, 105, 105, 0, 105, 105,
            105, 105, 105, 105, 0, 105, 105, 105, 105, 105, 105, 0, 105, 105, 105, 0, 105, 105,
            105, 105, 105, 105, 0, 105, 105, 105, 105, 105, 105, 0, 105, 105, 105, 0, 105, 105,
            105, 105, 105, 105, 105, 105, 105, 105, 105, 105, 105, 0, 105, 105, 105, 0, 105, 105,
            105, 0, 0, 0, 0, 0, 0, 0, 0, 0, 0, 0, 0, 0, 0, 0, 0, 105,
            105, 105, 105, 105, 105, 0, 105, 105, 105, 105, 105, 0, 105, 105, 105, 105, 0, 105,
            105, 105, 105, 105, 105, 0, 105, 105, 105, 105, 105, 0, 105, 0, 0, 105, 0, 105,
            105, 105, 105, 105, 105, 0, 105, 105, 105, 105, 105, 0, 105, 105, 105, 105, 0, 105,
            105, 105, 105, 105, 105, 0, 105, 0, 0, 0, 0, 0, 105, 0, 0, 0, 0, 105,
            105, 105, 105, 105, 105, 0, 105, 105, 105, 105, 105, 0, 105, 105, 105, 105, 105, 105,
            105, 0, 0, 0, 0, 0, 105, 0, 0, 0, 0, 0, 105, 105, 105, 105, 105, 105,
            105, 105, 105, 105, 105, 105, 105, 105, 105, 105, 105, 105, 105, 105, 105, 105, 105, 105],
         "height":18,
         "id":2,
         "name":"MazeWalls",
         "opacity":1,
         "type":"tilelayer",
         "visible":true,
         "width":18,
         "x":0,
         "y":0
        }],
 "nextlayerid":3,
 "nextobjectid":1,
 "orientation":"orthogonal",
 "renderorder":"right-down",
 "tiledversion":"1.11.2",
 "tileheight":16,
 "tilesets":[
        {
         "columns":16,
         "firstgid":1,
         "image":"tileset_full.png",
         "imageheight":400,
         "imagewidth":256,
         "margin":0,
         "name":"TESTING TILESET FOR MAZE",
         "spacing":0,
         "tilecount":400,
         "tileheight":16,
         "tiles":[
                {
                 "id":35,
                 "properties":[
                        {
                         "name":"cost",
                         "type":"int",
                         "value":999
                        }]
                }, 
                {
                 "id":104,
                 "properties":[
                        {
                         "name":"cost",
                         "type":"int",
                         "value":0
                        }]
                }],
         "tilewidth":16
        }],
 "tilewidth":16,
 "type":"map",
 "version":"1.10",
 "width":18
}